public/images/deuxsalles.svg

<svg width="130" height="130" viewBox="0 0 130 130" fill="none" xmlns="http://www.w3.org/2000/svg">
<path d="M5 125L78.3333 124.999V27.5247C78.3333 18.6671 78.3333 14.2383 76.458 11.1685C74.8133 8.47698 72.2253 6.45492 69.1713 5.47509C65.688 4.3576 61.2493 5.31833 52.372 7.23981L35.0388 10.9917C29.078 12.2819 26.0976 12.9271 23.8729 14.4882C21.9105 15.8653 20.3697 17.7363 19.4153 19.9009C18.3333 22.3549 18.3333 25.3288 18.3333 31.2766V125M78.2933 21.1013H90.3333C97.8007 21.1013 101.535 21.1013 104.387 22.5168C106.895 23.762 108.935 25.7488 110.213 28.1925C111.667 30.9707 111.667 34.6074 111.667 41.881V125H125M58.3333 66.5571H58.4" stroke="#3D2C20" stroke-width="10" stroke-linecap="round" stroke-linejoin="round"/>
</svg>

<svg xmlns="http://www.w3.org/2000/svg" width="130" height="130" fill="none"><path stroke="#3D2C20" stroke-linecap="round" stroke-linejoin="round" stroke-width="10" d="m5 125 73.333-.001V27.525c0-8.858 0-13.287-1.875-16.356-1.645-2.692-4.233-4.714-7.287-5.694-3.483-1.117-7.922-.157-16.799 1.765l-17.333 3.752c-5.961 1.29-8.941 1.935-11.166 3.496a13.06 13.06 0 0 0-4.458 5.413c-1.082 2.454-1.082 5.428-1.082 11.376V125m59.96-103.899h12.04c7.468 0 11.202 0 14.054 1.416a13.17 13.17 0 0 1 5.826 5.676c1.454 2.778 1.454 6.414 1.454 13.688V125H125M58.333 66.557h.067"/></svg>
